assets/Sun behind small cloud/Flat/sun_behind_small_cloud_flat.svg

<svg width="32" height="32" viewBox="0 0 32 32" fill="none" xmlns="http://www.w3.org/2000/svg">
<path d="M29.5652 17.271C26.4375 14.2533 21.4686 14.2458 18.3445 17.2319C17.9237 17.0817 17.4708 17 17 17C15.5825 17 14.3388 17.7372 13.6288 18.8466C10.4878 19.0779 8 21.6735 8 24.8643C8 26.2849 8.5001 27.5912 9.32367 28.6227C10.4437 30.0716 12.202 31 14.1803 31H24.1709C26.7178 31 28.9708 29.7587 30.3495 27.8549C32.7866 24.6841 32.5237 20.1283 29.5652 17.271Z" fill="#B4ACBC"/>
<path d="M12.0833 5.54444C13.0833 3.47444 16.0333 3.48444 17.0133 5.56444C17.3833 6.34444 18.3233 6.65444 19.0833 6.24444L19.5533 5.99444C21.3833 5.00444 23.5433 6.58444 23.1533 8.63444L23.0533 9.15444C22.8933 10.0044 23.4733 10.8044 24.3233 10.9244L24.8533 10.9944C26.9133 11.2744 27.7333 13.8244 26.2133 15.2444L25.8233 15.6144C25.1933 16.2044 25.1933 17.1944 25.8133 17.7944L26.2033 18.1644C27.7133 19.6044 26.8733 22.1444 24.8033 22.4044L24.2733 22.4744C23.4233 22.5844 22.8333 23.3844 22.9833 24.2344L23.0833 24.7544C23.4533 26.8044 21.2833 28.3644 19.4633 27.3644L18.9933 27.1044C18.2433 26.6944 17.2933 26.9944 16.9133 27.7744C15.9133 29.8444 12.9633 29.8344 11.9833 27.7544C11.6133 26.9744 10.6733 26.6644 9.91332 27.0744L9.44332 27.3244C7.61332 28.3144 5.45332 26.7344 5.84332 24.6844L5.94332 24.1644C6.10332 23.3144 5.52332 22.5144 4.67332 22.3944L4.14332 22.3244C2.08332 22.0444 1.26332 19.4944 2.78332 18.0744L3.17332 17.7044C3.80332 17.1144 3.80332 16.1244 3.18332 15.5244L2.79332 15.1544C1.28332 13.7144 2.12332 11.1744 4.19332 10.9144L4.72332 10.8444C5.57332 10.7344 6.16332 9.93444 6.01332 9.08444L5.91332 8.56444C5.54332 6.51444 7.71332 4.95444 9.53332 5.95444L10.0033 6.21444C10.7633 6.62444 11.7033 6.32444 12.0833 5.54444Z" fill="#FF822D"/>
<path d="M14.4636 26.4745C19.887 26.4745 24.2836 22.0779 24.2836 16.6545C24.2836 11.231 19.887 6.83447 14.4636 6.83447C9.04012 6.83447 4.64355 11.231 4.64355 16.6545C4.64355 22.0779 9.04012 26.4745 14.4636 26.4745Z" fill="#F9C23C"/>
<path d="M18.8803 18.1076C21.6043 15.341 26.0761 15.2942 28.8709 17.9907C31.461 20.4923 31.6894 24.4824 29.548 27.2568C28.3513 28.9167 26.391 30 24.1709 30H14.1803C12.5191 30 11.0469 29.2207 10.1101 28.0049C9.41725 27.1399 9 26.0488 9 24.8643C9 22.0821 11.2752 19.8299 14.0858 19.8299C14.136 19.8299 14.186 19.8306 14.2359 19.832C14.6913 18.7554 15.7575 18 17 18C17.5753 18 18.1128 18.1619 18.5693 18.4427C18.6685 18.3285 18.7722 18.2167 18.8803 18.1076Z" fill="#F3EEF8"/>
</svg>

<svg xmlns="http://www.w3.org/2000/svg" width="32" height="32" fill="none"><path fill="#B4ACBC" d="M29.565 17.271c-3.128-3.018-8.096-3.025-11.22-.04a3.996 3.996 0 0 0-4.716 1.615C10.488 19.079 8 21.675 8 24.865c0 1.42.5 2.727 1.324 3.759A6.119 6.119 0 0 0 14.18 31h9.99c2.548 0 4.8-1.241 6.18-3.145a7.96 7.96 0 0 0-.785-10.584Z"/><path fill="#FF822D" d="M12.083 5.544c1-2.07 3.95-2.06 4.93.02.37.78 1.31 1.09 2.07.68l.47-.25c1.83-.99 3.99.59 3.6 2.64l-.1.52c-.16.85.42 1.65 1.27 1.77l.53.07c2.06.28 2.88 2.83 1.36 4.25l-.39.37c-.63.59-.63 1.58-.01 2.18l.39.37c1.51 1.44.67 3.98-1.4 4.24l-.53.07c-.85.11-1.44.91-1.29 1.76l.1.52c.37 2.05-1.8 3.61-3.62 2.61l-.47-.26c-.75-.41-1.7-.11-2.08.67-1 2.07-3.95 2.06-4.93-.02a1.498 1.498 0 0 0-2.07-.68l-.47.25c-1.83.99-3.99-.59-3.6-2.64l.1-.52c.16-.85-.42-1.65-1.27-1.77l-.53-.07c-2.06-.28-2.88-2.83-1.36-4.25l.39-.37c.63-.59.63-1.58.01-2.18l-.39-.37c-1.51-1.44-.67-3.98 1.4-4.24l.53-.07a1.51 1.51 0 0 0 1.29-1.76l-.1-.52c-.37-2.05 1.8-3.61 3.62-2.61l.47.26c.76.41 1.7.11 2.08-.67Z"/><path fill="#F9C23C" d="M14.464 26.474c5.423 0 9.82-4.396 9.82-9.82 0-5.423-4.397-9.82-9.82-9.82-5.424 0-9.82 4.397-9.82 9.82 0 5.424 4.396 9.82 9.82 9.82Z"/><path fill="#F3EEF8" d="M18.88 18.108c2.724-2.767 7.196-2.814 9.99-.117a6.96 6.96 0 0 1 .678 9.266A6.611 6.611 0 0 1 24.171 30h-9.99a5.118 5.118 0 0 1-4.07-1.995A5.01 5.01 0 0 1 9 24.865c0-2.783 2.275-5.035 5.086-5.035.05 0 .1 0 .15.002a3 3 0 0 1 4.333-1.39c.1-.114.203-.225.311-.334Z"/></svg>
